!!!OTL: ABSCHIED MUSS ICH NEHMEN HIER
!!!ARE: Europa, Mitteleuropa, Deutschland, Niederrhein; Westfalen;     Bergisches Land
!!!SCT: E0776
!!!YEM: Copyright 1995, estate of Helmut Schaffrath.
**kern
*ICvox
*Ivox
*M4/4
*k[b-e-a-]
*E-:
=1
{4e-
8e-
8g
4b-
4b-
=2
4.g
8f
4e-
4r}
=3
{4.cc
8dd
4ee-
4cc
=4
4.cc
8b-
4b-
4r}
=5
{4b-
8cc
8dd
4ee-
4ee-
=6
4g
8g
8cc
2b-}
=7
{4g
4g
8b-
8a-
8g
8f
=8
2f
4e-
4r}
=9
{4b-
8cc
8dd
4ee-
4ee-
=10
4g
8g
8cc
2b-}
=11
{4g
4g
8b-
8a-
8g
8f
=12
2f
4e-
4r}
==
!!!AGN: Abschieds - Lied, Wander - Lied, Liebe
!!!ONB: ESAC (Essen Associative Code) Database: ERK2
!!!AMT: simple quadruple
!!!AIN: vox
!!!EED: Helmut Schaffrath
!!!EEV: 1.0
*-
!!!title: @{OTL} [@{SCT}]
